packages/appstore/src/assets/svgs/trading-platform/branding/ic-branding-standard-dashboard.svg

<svg xmlns="http://www.w3.org/2000/svg" viewBox="0 0 48 48" fill="none">
  <g clip-path="url(#clip0_32154_23696)">
    <path d="M39 0H9C4.02944 0 0 4.02944 0 9V35.25H48V9C48 4.02944 43.9706 0 39 0Z" fill="#0364B9"/>
    <path d="M9 0C4.02944 0 0 4.02944 0 9V9.26143L44.8717 2.17896C43.2955 0.820999 41.2436 0 39 0H9Z" fill="#0A559E"/>
    <path d="M48 9C48 6.74364 47.1698 4.68068 45.798 3.10107L39.9042 35.2495L48 35.25V9Z" fill="#0A559E"/>
    <path d="M0 34.5H48V39C48 43.9706 43.9706 48 39 48H9C4.02944 48 0 43.9706 0 39V34.5Z" fill="#2A3052"/>
    <path d="M11.0192 14.526C11.2352 14.922 11.4812 15.414 11.7572 16.002C12.0452 16.578 12.3392 17.208 12.6392 17.892C12.9512 18.564 13.2572 19.254 13.5572 19.962C13.8572 20.67 14.1392 21.336 14.4032 21.96C14.6672 21.336 14.9492 20.67 15.2492 19.962C15.5492 19.254 15.8492 18.564 16.1492 17.892C16.4612 17.208 16.7552 16.578 17.0312 16.002C17.3192 15.414 17.5712 14.922 17.7872 14.526H20.3432C20.4632 15.354 20.5712 16.284 20.6672 17.316C20.7752 18.336 20.8652 19.404 20.9372 20.52C21.0212 21.624 21.0932 22.734 21.1532 23.85C21.2252 24.966 21.2852 26.016 21.3332 27H18.5972C18.5612 25.788 18.5132 24.468 18.4532 23.04C18.3932 21.612 18.3032 20.172 18.1832 18.72C17.9672 19.224 17.7272 19.782 17.4632 20.394C17.1992 21.006 16.9352 21.618 16.6712 22.23C16.4192 22.842 16.1732 23.43 15.9332 23.994C15.6932 24.546 15.4892 25.02 15.3212 25.416H13.3592C13.1912 25.02 12.9872 24.546 12.7472 23.994C12.5072 23.43 12.2552 22.842 11.9912 22.23C11.7392 21.618 11.4812 21.006 11.2172 20.394C10.9532 19.782 10.7132 19.224 10.4972 18.72C10.3772 20.172 10.2872 21.612 10.2272 23.04C10.1672 24.468 10.1192 25.788 10.0832 27H7.34719C7.39519 26.016 7.44919 24.966 7.50919 23.85C7.58119 22.734 7.65319 21.624 7.72519 20.52C7.80919 19.404 7.89919 18.336 7.99519 17.316C8.10319 16.284 8.21719 15.354 8.33719 14.526H11.0192Z" fill="white"/>
    <path d="M32.0377 14.526V16.92H28.2757V27H25.4677V16.92H21.7057V14.526H32.0377Z" fill="white"/>
    <path d="M37.9823 23.328C37.9823 22.98 37.9043 22.674 37.7483 22.41C37.5923 22.134 37.3223 21.906 36.9383 21.726C36.5543 21.546 36.0383 21.408 35.3903 21.312C34.7423 21.216 33.9263 21.168 32.9423 21.168C33.0743 20.052 33.1823 18.918 33.2663 17.766C33.3503 16.614 33.4163 15.534 33.4643 14.526H40.2143V16.776H35.7143C35.6903 17.208 35.6603 17.628 35.6243 18.036C35.6003 18.432 35.5703 18.78 35.5343 19.08C37.2863 19.2 38.5763 19.614 39.4043 20.322C40.2443 21.018 40.6643 21.99 40.6643 23.238C40.6643 23.814 40.5623 24.348 40.3583 24.84C40.1543 25.332 39.8483 25.758 39.4403 26.118C39.0323 26.478 38.5163 26.76 37.8923 26.964C37.2803 27.168 36.5603 27.27 35.7323 27.27C35.4083 27.27 35.0663 27.246 34.7063 27.198C34.3583 27.162 34.0163 27.108 33.6803 27.036C33.3563 26.976 33.0623 26.91 32.7983 26.838C32.5343 26.766 32.3303 26.694 32.1863 26.622L32.6723 24.408C32.9723 24.54 33.3683 24.672 33.8603 24.804C34.3523 24.924 34.9403 24.984 35.6243 24.984C36.4523 24.984 37.0523 24.822 37.4243 24.498C37.7963 24.162 37.9823 23.772 37.9823 23.328Z" fill="white"/>
    <path d="M17.8077 43.3079C18.0057 43.3079 18.1677 43.2929 18.2937 43.2629C18.4257 43.2269 18.5307 43.1819 18.6087 43.1279C18.6867 43.0679 18.7407 42.9989 18.7707 42.9209C18.8007 42.8429 18.8157 42.7559 18.8157 42.6599C18.8157 42.4559 18.7197 42.2879 18.5277 42.1559C18.3357 42.0179 18.0057 41.8709 17.5377 41.7149C17.3337 41.6429 17.1297 41.5619 16.9257 41.4719C16.7217 41.3759 16.5387 41.2589 16.3767 41.1209C16.2147 40.9769 16.0827 40.8059 15.9807 40.6079C15.8787 40.4039 15.8277 40.1579 15.8277 39.8699C15.8277 39.5819 15.8817 39.3239 15.9897 39.0959C16.0977 38.8619 16.2507 38.6639 16.4487 38.5019C16.6467 38.3399 16.8867 38.2169 17.1687 38.1329C17.4507 38.0429 17.7687 37.9979 18.1227 37.9979C18.5427 37.9979 18.9057 38.0429 19.2117 38.1329C19.5177 38.2229 19.7697 38.3219 19.9677 38.4299L19.5627 39.5369C19.3887 39.4469 19.1937 39.3689 18.9777 39.3029C18.7677 39.2309 18.5127 39.1949 18.2127 39.1949C17.8767 39.1949 17.6337 39.2429 17.4837 39.3389C17.3397 39.4289 17.2677 39.5699 17.2677 39.7619C17.2677 39.8759 17.2947 39.9719 17.3487 40.0499C17.4027 40.1279 17.4777 40.1999 17.5737 40.2659C17.6757 40.3259 17.7897 40.3829 17.9157 40.4369C18.0477 40.4849 18.1917 40.5359 18.3477 40.5899C18.6717 40.7099 18.9537 40.8299 19.1937 40.9499C19.4337 41.0639 19.6317 41.1989 19.7877 41.3549C19.9497 41.5109 20.0697 41.6939 20.1477 41.9039C20.2257 42.1139 20.2647 42.3689 20.2647 42.6689C20.2647 43.2509 20.0607 43.7039 19.6527 44.0279C19.2447 44.3459 18.6297 44.5049 17.8077 44.5049C17.5317 44.5049 17.2827 44.4869 17.0607 44.4509C16.8387 44.4209 16.6407 44.3819 16.4667 44.3339C16.2987 44.2859 16.1517 44.2349 16.0257 44.1809C15.9057 44.1269 15.8037 44.0759 15.7197 44.0279L16.1157 42.9119C16.3017 43.0139 16.5297 43.1069 16.7997 43.1909C17.0757 43.2689 17.4117 43.3079 17.8077 43.3079Z" fill="white"/>
    <path d="M25.7952 38.1419V39.3389H23.9142V44.3789H22.5102V39.3389H20.6292V38.1419H25.7952Z" fill="white"/>
    <path d="M28.1015 43.2359C28.1675 43.2419 28.2425 43.2479 28.3265 43.2539C28.4165 43.2539 28.5215 43.2539 28.6415 43.2539C29.3435 43.2539 29.8625 43.0769 30.1985 42.7229C30.5405 42.3689 30.7115 41.8799 30.7115 41.2559C30.7115 40.6019 30.5495 40.1069 30.2255 39.7709C29.9015 39.4349 29.3885 39.2669 28.6865 39.2669C28.5905 39.2669 28.4915 39.2699 28.3895 39.2759C28.2875 39.2759 28.1915 39.2819 28.1015 39.2939V43.2359ZM32.1605 41.2559C32.1605 41.7959 32.0765 42.2669 31.9085 42.6689C31.7405 43.0709 31.5005 43.4039 31.1885 43.6679C30.8825 43.9319 30.5075 44.1299 30.0635 44.2619C29.6195 44.3939 29.1215 44.4599 28.5695 44.4599C28.3175 44.4599 28.0235 44.4479 27.6875 44.4239C27.3515 44.4059 27.0215 44.3639 26.6975 44.2979V38.2229C27.0215 38.1629 27.3575 38.1239 27.7055 38.1059C28.0595 38.0819 28.3625 38.0699 28.6145 38.0699C29.1485 38.0699 29.6315 38.1299 30.0635 38.2499C30.5015 38.3699 30.8765 38.5589 31.1885 38.8169C31.5005 39.0749 31.7405 39.4049 31.9085 39.8069C32.0765 40.2089 32.1605 40.6919 32.1605 41.2559Z" fill="white"/>
  </g>
  <defs>
    <clipPath id="clip0_32154_23696">
      <rect width="48" height="48" fill="white"/>
    </clipPath>
  </defs>
</svg>

<svg xmlns="http://www.w3.org/2000/svg" fill="none" viewBox="0 0 48 48"><g clip-path="url(#a)"><path fill="#0364B9" d="M39 0H9a9 9 0 0 0-9 9v26.25h48V9a9 9 0 0 0-9-9Z"/><path fill="#0A559E" d="M9 0a9 9 0 0 0-9 9v.261L44.872 2.18A8.965 8.965 0 0 0 39 0H9ZM48 9c0-2.256-.83-4.32-2.202-5.899L39.904 35.25 48 35.25V9Z"/><path fill="#2A3052" d="M0 34.5h48V39a9 9 0 0 1-9 9H9a9 9 0 0 1-9-9v-4.5Z"/><path fill="#fff" d="M11.02 14.526c.215.396.461.888.737 1.476.288.576.582 1.206.882 1.89.312.672.618 1.362.918 2.07l.846 1.998.846-1.998c.3-.708.6-1.398.9-2.07.312-.684.606-1.314.882-1.89.288-.588.54-1.08.756-1.476h2.556c.12.828.228 1.758.324 2.79.108 1.02.198 2.088.27 3.204.084 1.104.156 2.214.216 3.33.072 1.116.132 2.166.18 3.15h-2.736a323.856 323.856 0 0 0-.144-3.96 106.97 106.97 0 0 0-.27-4.32l-.72 1.674-.792 1.836c-.252.612-.498 1.2-.738 1.764-.24.552-.444 1.026-.612 1.422H13.36c-.168-.396-.372-.87-.612-1.422-.24-.564-.492-1.152-.756-1.764-.252-.612-.51-1.224-.774-1.836l-.72-1.674a106.97 106.97 0 0 0-.27 4.32c-.06 1.428-.108 2.748-.144 3.96H7.347c.048-.984.102-2.034.162-3.15l.216-3.33c.084-1.116.174-2.184.27-3.204.108-1.032.222-1.962.342-2.79h2.682ZM32.038 14.526v2.394h-3.762V27h-2.808V16.92h-3.762v-2.394h10.332ZM37.982 23.328a1.77 1.77 0 0 0-.234-.918c-.156-.276-.426-.504-.81-.684-.384-.18-.9-.318-1.548-.414-.648-.096-1.464-.144-2.448-.144.132-1.116.24-2.25.324-3.402.084-1.152.15-2.232.198-3.24h6.75v2.25h-4.5c-.024.432-.054.852-.09 1.26a18.04 18.04 0 0 1-.09 1.044c1.752.12 3.042.534 3.87 1.242.84.696 1.26 1.668 1.26 2.916 0 .576-.102 1.11-.306 1.602-.204.492-.51.918-.918 1.278-.408.36-.924.642-1.548.846-.612.204-1.332.306-2.16.306-.324 0-.666-.024-1.026-.072a9.615 9.615 0 0 1-1.026-.162c-.324-.06-.618-.126-.882-.198a3.463 3.463 0 0 1-.612-.216l.486-2.214c.3.132.696.264 1.188.396.492.12 1.08.18 1.764.18.828 0 1.428-.162 1.8-.486.372-.336.558-.726.558-1.17ZM17.808 43.308c.198 0 .36-.015.486-.045.132-.036.237-.081.315-.135a.48.48 0 0 0 .162-.207.722.722 0 0 0 .045-.261c0-.204-.096-.372-.288-.504-.192-.138-.522-.285-.99-.441a8.642 8.642 0 0 1-.612-.243 2.45 2.45 0 0 1-.55-.351 1.754 1.754 0 0 1-.395-.513 1.635 1.635 0 0 1-.153-.738c0-.288.054-.546.162-.774.108-.234.26-.432.459-.594.198-.162.438-.285.72-.37.282-.09.6-.134.954-.134.42 0 .783.045 1.089.135.306.09.558.189.756.297l-.405 1.107a3.496 3.496 0 0 0-.585-.234 2.374 2.374 0 0 0-.765-.108c-.336 0-.58.048-.73.144-.143.09-.215.23-.215.423 0 .114.027.21.08.288.055.078.13.15.226.216.102.06.216.117.342.17.132.049.276.1.432.154.324.12.606.24.846.36.24.114.438.249.594.405.162.156.282.339.36.549.078.21.117.465.117.765 0 .582-.204 1.035-.612 1.359-.408.318-1.023.477-1.845.477-.276 0-.525-.018-.747-.054a4.527 4.527 0 0 1-.594-.117 3.727 3.727 0 0 1-.441-.153 3.616 3.616 0 0 1-.306-.153l.396-1.116c.186.102.414.195.684.279.276.078.612.117 1.008.117ZM25.795 38.142v1.197h-1.88v5.04H22.51v-5.04h-1.88v-1.197h5.165ZM28.102 43.236l.224.018h.316c.701 0 1.22-.177 1.556-.531.343-.354.514-.843.514-1.467 0-.654-.163-1.15-.486-1.485-.325-.336-.837-.504-1.54-.504a5.06 5.06 0 0 0-.296.009c-.102 0-.198.006-.288.018v3.942Zm4.058-1.98c0 .54-.083 1.01-.251 1.413a2.596 2.596 0 0 1-.72.999 3.008 3.008 0 0 1-1.125.594 5.237 5.237 0 0 1-1.494.198c-.253 0-.547-.012-.883-.036a6.766 6.766 0 0 1-.99-.126v-6.075c.325-.06.66-.1 1.009-.117.354-.024.657-.036.909-.036.534 0 1.017.06 1.449.18.438.12.813.309 1.125.567.311.258.552.588.72.99.168.402.252.885.252 1.449Z"/></g><defs><clipPath id="a"><path fill="#fff" d="M0 0h48v48H0z"/></clipPath></defs></svg>
